X: 52
T: Akşam Oldu Yine Bastı Kareler
C: (Anonim)
O: Turkey
F: http://compmusic.upf.edu/node/140
N: huzzam--turku--sofyan--aksam_oldu--rumeli
N: makam= huzzam
N: form= turku
N: usul= sofyan = 4/4
M: 4/4
L: 1/16
K: C _1/4B _3/4e ^3/4f 
Q: 1/4=72
%%MIDI tuningsystem comma53
z8 z4 fgfe  | fed4B2 c2de dcB^A  | B2^AB c2Bc d2cd e2de  | 
w:   |  ARANAĞME  |   | 
fed4B2 c2d2 dccB  | _2/4B4 _1/4BcB^A B4 fgfe  | \
w:   |   | 
fed4B2 c2de dcB^A  | 
w:  ARANAĞME  | 
B2^AB c2Bc d2cd e2de  | fed4B2 c2de dccB  | 
w:   |   | 
B6ag g^ff^e f4  | ^f4 f2f2 f4 f4  | a3g g2g^f ^3/4f3e feed  | 
w:   |  Ah  ak şam_ ol du   |  yi *  ne  de  *  bas  | 
d4 e2^f2 g8  | g8 f3e d2e2  | d2e2 f2g2 f3e feed  | \
w:  tı  ka re ler   |   |  *  *  *  *  gel  *  gel_ *  a  | 
d6ag g^ff^e f4  | 
w:  man   SAZ  | 
^f4 f2f2 f4 f4  | a3g g2g^f ^3/4f3e feed  | \
w:  Ah  ak şam_ ol du   |  yi *  ne  de  *  bas  | 
d4 e2^f2 g8  | g8 f3e d2e2  | 
w:  tı  ka re ler   |   | 
d2e2 f2g2 f3e feed  | d6de dcBc d4  | \
w:  *  *  *  *  gel  *  gel_ *  a  |  man   SAZ  | 
d4 B2c2 d4 d4  | 
w:  Ah  git me  yav rum   | 
a2g2 =f2_1/4e2 d3c c2B^A  | B4 ^A2B2 c8  | \
w:  se *  ni  de  ars *  lan   |  *  pa re ler   | 
c2B2 d4 dcB^A B2c2  | 
w:   | 
B4 g2a2 g2=f2 _1/4e2d2  | d3c _2/4B2c2 B2d2 c2B2  | \
w:  *  of  a man   |  pa  | 
c_2/4BA12G2  | _2/4Bcd4cB B4 ag^f^e  | 
w:  re  |  ler   *  *  *  *  *  SAZ  | 
^f4 f2f2 f4 f4  | a3g g2g^f ^3/4f3e feed  | \
w:  Ah  ak şam_ ol du   |  yi *  ne  de  *  bas  | 
d4 e2^f2 g8  | g8 f3e d2e2  | 
w:  tı  ka re ler   |   | 
d2e2 f2g2 f3e feed  | d6ag g^ff^e f4  | \
w:  *  *  *  *  gel  *  gel_ *  a  |  man   SAZ  | 
^f4 f2f2 f4 f4  | 
w:  Ah  ak şam_ ol du   | 
a3g g2g^f ^3/4f3e feed  | d4 e2^f2 g8  | \
w:  yi *  ne  de  *  bas  |  tı  ka re ler   | 
g8 f3e d2e2  | d2e2 f2g2 f3e feed  | 
w:   |  *  *  *  *  gel  *  gel_ *  a  | 
d6de dcBc d4  | d4 B2c2 d4 d4  | a2g2 =f2_1/4e2 d3c c2B^A  | 
w:  man   SAZ  |  Ah  git me  yav rum   |  se *  ni  de  ars *  lan   | 
B4 ^A2B2 c8  | c2B2 d4 dcB^A B2c2  | \
w:  *  pa re ler   |   | 
B4 g2a2 g2=f2 _1/4e2d2  | d3c _2/4B2c2 B2d2 c2B2  | 
w:  *  of  a man   |  pa  | 
c_2/4BA12G2  | _2/4Bcd4cB B4 z4  | |


